X:65
T:Dinky's
M:4/4
L:1/8
R:reel
D:Altan: Best Of (Live CD)
K:Amix
ed|:c2Bc ABcd|egfd edBd|gB~B2 gBaB|gB~B2 gfed|
c2Bc ABcd|egfd edBd|gfge dfed|1 cdBc Afed:|2 cdBc Aef^g|
aA~A2 aAbA|aA~A2 agef|gB~B2 gBaB|gB~B2 gfeg|
[1 aA~A2 aAbA|aA~A2 agef|gfge dfed|cdBc Aef^g:|
[2 aA~A2 gA~A2|fA~A2 eA~A2|gfge dfed|cdBc A2||
%%text A variation on the first line of the `B' part (played the second time through) is:
a2b2 a2b2|a2b2 agef|g2a2 g2a2|g2a2 gfeg|
